!!!!SEGMENT: pl-kj--bj-muz-3129-iii_zelenski-wladyslaw--rojenia-wiosenne-op-13.krn
!!!cenid: 18xx:3676
!!!COM: Żeleński, Władysław
!!!COM-rismID: pe41024455
!!!CDT: 1837/07/06-1921/01/23
!!!CNT: Polish
!!!OTL: Rojenia wiosenne op. 13
!!!PDT:
!!!AGN:
!!!SMS-siglum: PL-Kj
!!!SMS-shelfmark: BJ Muz. 3129 III
!!!SMS-shelfwork: W
!!!SMS-variant:
!!!SMS-altvar:
!!!NIFC-rismSourceID:
!!!NIFC-rismChildID:
!!!NIFC-islandoraID: none
!!!URL-pdf-islandora:
!!!URL-scan: https://polona.pl/item/rojenia-wiosenne-z-towarzyszeniem-fortepianu-op-13,ODQ2NDA2MDY/0 @EN{Scan on Polona} @PL{Skany w portalu Polona}
!!!ONB-nifc:
!!!AIN: 2 empty
!!!key:
**kern	**kern	**dynam	**kern	**text	**dynam
*part2	*part2	*part2	*part1	*part1	*part1
*staff3	*staff2	*	*staff1	*staff1	*
*Iempty	*Iforte	*	*Iempty	*	*
*	*I"Fortepian.	*	*I"Śpiew.	*	*
*	*I'pf	*	*I'voce umana	*	*
*clefF4	*clefG2	*	*clefG2	*	*
*k[]	*k[]	*	*k[]	*	*
*C:	*C:	*	*C:	*	*
*M2/4	*M2/4	*	*M2/4	*	*
=1	=1	=1	=1	=1	=1
!	!	!	!LO:TX:a:B:t=Allegretto scherzando.	!	!
8C'\L	4gg\	p	2r	.	.
8eJ 8G'\	.	.	.	.	.
8C'\L	8ee'\L	.	.	.	.
8eJ 8G'\	8cc'\J	.	.	.	.
=2	=2	=2	=2	=2	=2
8C'\L	8dd'\L	.	2r	.	.
8fJ 8G'\	8b'\	.	.	.	.
.	(<8qb/	.	.	.	.
8C'\L	8a'\)	.	.	.	.
8fJ 8G'\	8g'\J	.	.	.	.
=3	=3	=3	=3	=3	=3
8C'\L	8cc'\L	.	2r	.	.
8eJ 8G'\	8dd'\	.	.	.	.
8C'\L	8ee'\	.	.	.	.
8eJ 8G'\	8aa'\J	.	.	.	.
=4	=4	=4	=4	=4	=4
8C'\L	4gg\	.	2r	.	.
8e 8G'\	.	.	.	.	.
8C'\J	8r	.	.	.	.
!	!LO:TX:b:t=leggiero	!	!	!	!
8r	(16ee\LL	.	.	.	.
.	16gg\JJ	.	.	.	.
*clefG2	*	*	*	*	*
=5	=5	=5	=5	=5	=5
8r	8ff'\)	.	2r	.	.
(16g#X/LL	8r	.	.	.	.
16b/JJ	.	.	.	.	.
8a'/)	8r	.	.	.	.
8r	(16cc#X\LL	.	.	.	.
.	16ee\JJ	.	.	.	.
!!LO:LB:g=original
=6	=6	=6	=6	=6	=6
8r	8dd'\)	.	2r	.	.
(16e/LL	8r	.	.	.	.
16gn/JJ	.	.	.	.	.
8f'/)	8r	.	.	.	.
8r	(16a#X\LL	.	.	.	.
.	16cc\JJ	.	.	.	.
=7	=7	=7	=7	=7	=7
*^	*^	*	*	*	*
!	!	!LO:TX:b:t=rallent.	!	!	!	!	!
8r	4.ryy	8b'\)	4.ryy	.	2r	.	.
(16c#X/LL	.	8r	.	.	.	.	.
16e/JJ	.	.	.	.	.	.	.
8d'/)	.	8r	.	.	.	.	.
*clefF4	*	*	*	*	*	*	*
8E-X/	[8GG\	16f#X/LL	8cn\	.	.	.	.
.	.	16an/JJ	.	.	.	.	.
*v	*v	*	*	*	*	*	*
*	*v	*v	*	*	*	*
=8	=8	=8	=8	=8	=8
4.D 4.GG;/]	4.g 4.B;/	.	4r;	.	.
.	.	.	8r	.	.
!	!	!	!	!	!LO:DY:a
8r	8r	.	8g/	O!	p
=9	=9	=9	=9	=9	=9
!	!LO:TX:b:t=a tempo	!	!LO:TX:a:B:t=a tempo	!	!
8BB/	8r	p	(8a/L	wi-	.
8r	8f 8d 8G/	.	8g/J)	.	.
8GG/	8r	.	8d/	-dać	.
8r	8f 8d 8G/	.	8f/	i	.
=10	=10	=10	=10	=10	=10
8C/	8r	.	4e/	sły-	.
8r	8e 8c 8G/	.	.	.	.
8GG/	8r	.	8g/	-chać	.
8r	8e 8c 8G/	.	8g/	w o-	.
=11	=11	=11	=11	=11	=11
!	!	!	!	!	!LO:DY:a
8FF/	8r	.	(8a/L	-gród-	<
8r	8f 8c 8G/	.	8b/J)	.	.
8CC/	8r	.	8cc\	-ku	.
8r	8e 8c 8G/	.	8ee\	sko-	.
!!LO:LB:g=original
=12	=12	=12	=12	=12	=12
8C/	8r	.	4ee\	-wro-	.
8r	8g 8e 8G/	.	.	.	.
8BB/	8r	.	8ee\	-nek	.
8r	8g 8e 8G/	.	8ee\	Z pio-	[[
=13	=13	=13	=13	=13	=13
!	!	!	!	!	!LO:DY:a
8AA'\L	8.r	.	4ee\	-sen-	>
8cJ 8E'\	.	.	.	.	.
*	*Xtuplet	*	*	*	*
.	48bb\LLL	.	.	.	.
.	48ccc\	.	.	.	.
.	48ddd\JJJ	.	.	.	.
8AA'\L	4ccc\	.	8cc\	-ką	.
8cJ 8E'\	.	.	8b\	pod-	]]
=14	=14	=14	=14	=14	=14
8C'\L	8.r	.	4b\	-le-	.
8eJ 8A'\	.	.	.	.	.
.	48gg#X\LLL	.	.	.	.
.	48aa\	.	.	.	.
.	48bb\JJJ	.	.	.	.
8C'\L	4aa\	.	8a/	-ci.	.
8e-XJ 8G'\	.	.	8a/	pod-	.
=15	=15	=15	=15	=15	=15
8D'\L	8.r	.	(8a\L	-le-	.
8dJ 8G'\	.	.	16b\L	.	.
.	48cc#X\LLL	.	16cc\JJ)	.	.
.	48dd\	.	.	.	.
.	48ee\JJJ	.	.	.	.
8D'\L	4dd\	.	8b\	-ci,	.
8cJ 8F#X'\	.	.	8a/	u-	.
=16	=16	=16	=16	=16	=16
!	!	!	!	!	!LO:DY:a
8GG'\L	8.r	.	4g/	-pa-	<
8fnJ 8c'\	.	.	.	.	.
.	48ff#X\LLL	.	.	.	.
.	48gg\	.	.	.	.
.	48aa\JJJ	.	.	.	.
([<8G'\L	4gg;\	.	8dd^;\	-dnie;	[
8fJ 8B 8G';\])	.	.	8g/	I	.
!!LO:PB:g=original
=17	=17	=17	=17	=17	=17
!	!	!	!	!	!LO:DY:a
8BB/	8r	p	(8a/L	mo-	p
8r	8f 8d 8G/	.	8g/J)	.	.
8GG/	8r	.	8d/	-je	.
8r	8f 8d 8G/	.	8f/	kwia-	.
=18	=18	=18	=18	=18	=18
8C/	8r	.	4e/	-te-	.
8r	8e 8c 8G/	.	.	.	.
8GG/	8r	.	8g/	-czki	.
8r	8e 8c 8G/	.	8g/	z roz-	.
=19	=19	=19	=19	=19	=19
!	!	!	!	!	!LO:DY:a
8FF/	8r	.	(8a/L	-pu-	<
8r	8f 8c 8A/	.	8b/J)	.	.
8CC/	8r	.	8cc\	-kłych	.
8r	8e 8c 8G/	.	8ee\	na-	.
=20	=20	=20	=20	=20	=20
8C/	8r	.	4ee\	-sio-	.
8r	8g 8e 8G/	.	.	.	.
8BB/	8r	.	8ee\	-nek,	.
8r	8g 8e 8G/	.	8ee\	Jak	[[
=21	=21	=21	=21	=21	=21
8AA'\L	8.r	.	4ee\	wscho-	.
8cJ 8E'\	.	.	.	.	.
.	48bb\LLL	.	.	.	.
.	48ccc\	.	.	.	.
.	48ddd\JJJ	.	.	.	.
8AA'\L	4ccc\	.	8cc\	-dzą	.
8cJ 8E'\	.	.	8b\	zie-	.
=22	=22	=22	=22	=22	=22
8D'\L	8.r	.	4b\	-lo-	.
8fJ 8A'\	.	.	.	.	.
.	48aa#X\LLL	.	.	.	.
.	48bb\	.	.	.	.
.	48ccc\JJJ	.	.	.	.
8D'\L	4bb\	.	8a/	-ne,	.
8fJ 8A'\	.	.	8a/	zie-	.
!!LO:LB:g=original
=23	=23	=23	=23	=23	=23
!	!LO:TX:b:t=rallent. un poco	!	!LO:TX:a:t=rallent. un poco	!	!
8E'\L	8.r	.	(8a\L	-lo-	.
8eJ 8A'\	.	.	16b\L	.	.
.	48gg#X\LLL	.	16cc\JJ)	.	.
.	48aa\	.	.	.	.
.	48bb\JJJ	.	.	.	.
8F'\L	4aa\	.	8b\	-no	.
8d#XJ 8A'\	.	.	8a/	i	.
=24	=24	=24	=24	=24	=24
8E'\L	8.r	.	4g#X/	ła-	.
8eJ 8A'\	.	.	.	.	.
.	48dd#X\LLL	.	.	.	.
.	48ee\	.	.	.	.
.	48ff\JJJ	.	.	.	.
([<8E\L	4ee;\	.	8ee;\	-dnie!	.
8eJ 8G#X 8E;\])	.	.	8ee\	O!	.
=25	=25	=25	=25	=25	=25
*ped	*	*	*	*	*
!	!LO:TX:b:t=a tempo	!	!LO:TX:a:B:t=a tempo	!	!
8C'\L	4r	.	4ee\	mil-	.
8eJ 8Gn'\	.	.	.	.	.
.	(<8qee/	.	.	.	.
8C'\L	8gg 8ee\)	.	8cc\	-sze	.
*Xped	*	*	*	*	*
8eJ 8G'\	8r	.	8b\	kro-	.
=26	=26	=26	=26	=26	=26
*ped	*	*	*	*	*
!	!LO:TX:b:t=leggiero	!	!	!	!
8C'\L	4r	.	(8a/L	-sien-	.
8fJ 8A'\	.	.	8b/J)	.	.
.	(<8qff/	.	.	.	.
8C'\L	8ccc 8ff\)	.	8cc\	-ka,	.
*Xped	*	*	*	*	*
8fJ 8A'\	8r	.	(16ee\LL	I	.
.	.	.	16dd\JJ)	.	.
=27	=27	=27	=27	=27	=27
*ped	*	*	*	*	*
8C'\L	4r	.	(8cc\L	mi-	.
8fJ 8G'\	.	.	8b\J)	.	.
.	(<8qff/	.	.	.	.
8C'\L	8ddd 8ff\)	.	8a/	-léj	.
*Xped	*	*	*	*	*
8fJ 8G'\	8r	.	8g/	z o-	.
=28	=28	=28	=28	=28	=28
*ped	*	*	*	*	*
8C'\L	4r	.	4cc\	-kien-	.
8eJ 8G'\	.	.	.	.	.
.	(<8qee/	.	.	.	.
8C'\L	8ggg 8ee\)	.	8gg\	-ka	.
*Xped	*	*	*	*	*
8eJ 8G'\	8r	.	8gg\	Za-	.
!!LO:LB:g=original
=29	=29	=29	=29	=29	=29
*ped	*	*	*	*	*
8E'\L	16r	.	4gg\	-dzwo-	.
.	16cc\LL	.	.	.	.
8gJ 8c'\	16ccc\	.	.	.	.
.	[16cc\JJ	.	.	.	.
8E'\L	8ccc 8cc\]	.	8ee\	-ni	.
*Xped	*	*	*	*	*
8b-XJ 8c'\	8r	.	8dd\	pio-	.
=30	=30	=30	=30	=30	=30
*ped	*	*	*	*	*
8F'\L	8r	.	4cc\	-sen-	.
8aJ 8c'\	[16cc\LL	.	.	.	.
.	16cccJJ 16cc\]	.	.	.	.
8A'\L	8r	.	4ff\	-ka,	.
*Xped	*	*	*	*	*
8fJ 8c'\	[16cc\LL	.	.	.	.
.	16cccJJ 16cc\]	.	.	.	.
=31	=31	=31	=31	=31	=31
*ped	*	*	*	*	*
8G'\L	8r	.	8ee\	La,	.
*Xped	*	*	*	*	*
8eJ 8c'\	[16gg\LL	.	(16dd\LL	la,	.
.	16gggJJ 16gg\]	.	16ff\JJ)	.	.
*ped	*	*	*	*	*
8G'\L	8r	.	8ee\	la.	.
*Xped	*	*	*	*	*
8fJ 8B'\	[16gg\LL	.	8dd\	pio-	.
.	16gggJJ 16gg\]	.	.	.	.
=32	=32	=32	=32	=32	=32
*^	*	*	*	*	*
4r	[2C\	4r	.	4.cc\	-sen-	.
4A/	.	16f/LL	<	.	.	.
.	.	16cc/	.	.	.	.
.	.	16f/	.	8cc\	-ka!	.
.	.	16cc/JJ	.	.	.	.
=33	=33	=33	=33	=33	=33	=33
!	!	!	!	!	!	!LO:DY:a
4G/	2C\_	16e/LL	.	8cc\	La,	<
.	.	16cc/	.	.	.	.
.	.	16e/	.	8cc\	la,	.
.	.	16cc/JJ	.	.	.	.
4F/	.	16d/LL	.	8cc\	la,	.
.	.	16cc/	.	.	.	.
.	.	16d/	.	8cc\	pio-	[[
.	.	16cc/JJ	[[	.	.	.
!!LO:LB:g=original
=34	=34	=34	=34	=34	=34	=34
!	!	!	!	!	!	!LO:DY:a
4E/	2C\_	16c/LL	>	(4.cc\	-sen-	>
.	.	16cc/	.	.	.	.
.	.	16c/	.	.	.	.
.	.	16cc/JJ	.	.	.	.
4A-X/	.	16f/LL	.	.	.	.
.	.	16cc/	.	.	.	.
.	.	16f/	.	16ee\LL	.	.
.	.	16cc/JJ	.	16dd\JJ)	.	.
=35	=35	=35	=35	=35	=35	=35
4.G/	4.C\]	4.cc 4.e/	.	4.cc\	-ka!	.
!	!	!	!	!	!	!LO:DY:a
8r	8ryy	8r	]	8g/	Po	] p
*v	*v	*	*	*	*	*
=36	=36	=36	=36	=36	=36
8BB/	8r	p	(8a/L	ci-	.
8r	8f 8d 8G/	.	8g/J)	.	.
8GG/	8r	.	8d/	-chu	.
8r	8f 8d 8G/	.	8f/	coś	.
=37	=37	=37	=37	=37	=37
8C/	8r	.	4e/	szep-	.
8r	8e 8c 8G/	.	.	.	.
8GG/	8r	.	8g/	-cą	.
8r	8e 8c 8G/	.	8g/	i	.
=38	=38	=38	=38	=38	=38
!	!	!	!	!	!LO:DY:a
8FF/	8r	.	(8a/L	mło-	<
8r	8f 8c 8A/	.	8b/J)	.	.
8CC/	8r	.	8cc\	-dzi	.
8r	8e 8c 8G/	.	8ee\	i	[[
=39	=39	=39	=39	=39	=39
8C/	8r	.	4ee\	sta-	.
8r	8g 8e 8G/	.	.	.	.
8BB/	8r	.	8ee\	-rzy,	.
8r	8g 8e 8G/	.	8ee\	O!	.
!!LO:PB:g=original
=40	=40	=40	=40	=40	=40
8AA'\L	8.r	.	4ee\	ła-	.
8cJ 8E'\	.	.	.	.	.
.	48bb\LLL	.	.	.	.
.	48ccc\	.	.	.	.
.	48ddd\JJJ	.	.	.	.
8AA'\L	4ccc\	.	8cc\	-two	.
8cJ 8E'\	.	.	8b\	od-	.
=41	=41	=41	=41	=41	=41
8C'\L	8.r	.	4b\	-ga-	.
8eJ 8A'\	.	.	.	.	.
.	48gg#X\LLL	.	.	.	.
.	48aa\	.	.	.	.
.	48bb\JJJ	.	.	.	.
8C'\L	4aa\	.	8a/	-dnąć,	.
8e-XJ 8G'\	.	.	8a/	od-	.
=42	=42	=42	=42	=42	=42
8D'\L	8.r	.	(8a\L	-ga-	.
8dJ 8G'\	.	.	16b\L	.	.
.	48cc#X\LLL	.	16cc\JJ)	.	.
.	48dd\	.	.	.	.
.	48ee\JJJ	.	.	.	.
8D'\L	4dd\	.	8b\	-dnąć	.
8cJ 8F#X'\	.	.	8a/	z ich	.
=43	=43	=43	=43	=43	=43
8GG'\L	8.r	.	4g/	o-	.
8fnJ 8c'\	.	.	.	.	.
.	48ff#X\LLL	.	.	.	.
.	48gg\	.	.	.	.
.	48aa\JJJ	.	.	.	.
([<8G\L	4gg;\	.	8dd;\	-czu,	.
8fJ 8B 8G;\])	.	.	8g/	Coś	.
=44	=44	=44	=44	=44	=44
8BB/	8r	.	(8a/L	o	.
8r	8f 8d 8G/	.	8g/J)	.	.
8GG/	8r	.	8d/	mnie,	.
8r	8f 8d 8G/	.	8f/	o	.
!!LO:LB:g=original
=45	=45	=45	=45	=45	=45
8C/	8r	.	4e/	kwia-	.
8r	8e 8c 8G/	.	.	.	.
8GG/	8r	.	8g/	-tach,	.
8r	8e 8c 8G/	.	8g/	co?	.
=46	=46	=46	=46	=46	=46
8FF/	8r	.	(8a/L	ja-	.
8r	8f 8c 8A/	.	8b/J)	.	.
8CC/	8r	.	8cc\	-kie	.
8r	8e 8c 8G/	.	8ee\	do	.
=47	=47	=47	=47	=47	=47
8C/	8r	.	4ee\	twa-	.
8r	8g 8e 8G/	.	.	.	.
8BB/	8r	.	8ee\	-rzy?	.
8r	8g 8e 8G/	.	8ee\	Co?	.
=48	=48	=48	=48	=48	=48
8AA'\L	8.r	.	4ee\	ja-	.
8cJ 8E'\	.	.	.	.	.
.	48bb\LLL	.	.	.	.
.	48ccc\	.	.	.	.
.	48ddd\JJJ	.	.	.	.
8AA'\L	4ccc\	.	8cc\	-kie	.
8cJ 8E'\	.	.	8b\	w mym	.
=49	=49	=49	=49	=49	=49
8D'\L	8.r	.	4b\	u-	.
8fJ 8A'\	.	.	.	.	.
.	48aa#X\LLL	.	.	.	.
.	48bb\	.	.	.	.
.	48ccc\JJJ	.	.	.	.
8D'\L	4bb\	.	8a/	-pleść,	.
8fJ 8A'\	.	.	8a/	w mym	.
=50	=50	=50	=50	=50	=50
!	!LO:TX:b:t=rallent. un poco	!	!LO:TX:a:t=rallent. un poco	!	!
8E'\L	8.r	.	(8a\L	u-	.
8eJ 8A'\	.	.	16b\L	.	.
.	48gg#X\LLL	.	16cc\JJ)	.	.
.	48aa\	.	.	.	.
.	48bb\JJJ	.	.	.	.
8F'\L	4aa\	.	8b\	-pleść	.
8d#XJ 8A'\	.	.	8a/	war-	.
!!LO:LB:g=original
=51	=51	=51	=51	=51	=51
8E'\L	8.r	.	4g#X/	-ko-	.
8eJ 8A'\	.	.	.	.	.
.	48dd#X\LLL	.	.	.	.
.	48ee\	.	.	.	.
.	48ff\JJJ	.	.	.	.
([<8E\L	4ee;\	.	8ee;\	-czu?	.
8eJ 8G#X 8E;\])	.	.	8ee\	O!	.
=52	=52	=52	=52	=52	=52
*ped	*	*	*	*	*
!	!LO:TX:b:t=a tempo	!	!LO:TX:a:B:t=a tempo	!	!
8C\L	4r	.	4ee\	mil-	.
8eJ 8Gn\	.	.	.	.	.
.	(8qee/	.	.	.	.
8C\L	8gg 8ee\)	.	8cc\	-sze	.
*Xped	*	*	*	*	*
8eJ 8G\	8r	.	8b\	kro-	.
=53	=53	=53	=53	=53	=53
*ped	*	*	*	*	*
!	!LO:TX:b:i:t=leggiero	!	!	!	!
8C\L	4r	.	(8a/L	-sien-	.
8fJ 8A\	.	.	8b/J)	.	.
.	(<8qff/	.	.	.	.
8C\L	8ccc 8ff\)	.	8cc\	-ka!	.
*Xped	*	*	*	*	*
8fJ 8A\	8r	.	(16ee\LL	I	.
.	.	.	16dd\JJ)	.	.
=54	=54	=54	=54	=54	=54
*ped	*	*	*	*	*
8C\L	4r	.	(8cc\L	mi-	.
8fJ 8G\	.	.	8b\J)	.	.
.	(<8qff/	.	.	.	.
8C\L	8ddd 8ff\)	.	8a/	-léj	.
*Xped	*	*	*	*	*
8fJ 8G\	8r	.	8g/	z o-	.
=55	=55	=55	=55	=55	=55
*ped	*	*	*	*	*
8C\L	4r	.	4cc\	-kien-	.
8eJ 8G\	.	.	.	.	.
.	(<8qee/	.	.	.	.
8C\L	8ggg 8ee\)	.	8gg\	-ka	.
*Xped	*	*	*	*	*
8eJ 8G\	8r	.	8gg\	Za-	.
=56	=56	=56	=56	=56	=56
*ped	*	*	*	*	*
8E\L	16r	.	4gg\	-dzwo-	.
.	16cc\LL	.	.	.	.
8gJ 8c\	16ccc\	.	.	.	.
.	[<16cc\JJ	.	.	.	.
8E\L	8ccc 8cc\]	.	8ee\	-ni	.
*Xped	*	*	*	*	*
8b-XJ 8c\	8r	.	8dd\	pio-	.
!!LO:LB:g=original
=57	=57	=57	=57	=57	=57
*ped	*	*	*	*	*
8F\L	8r	.	4cc\	-sen-	.
8aJ 8c\	[<16cc\LL	.	.	.	.
.	16cccJJ 16cc\]	.	.	.	.
8A\L	8r	.	4ff\	-ka,	.
*Xped	*	*	*	*	*
8fJ 8c\	[<16cc\LL	.	.	.	.
.	16cccJJ 16cc\]	.	.	.	.
=58	=58	=58	=58	=58	=58
*ped	*	*	*	*	*
8G\L	8r	.	8ee\	La,	.
*Xped	*	*	*	*	*
8eJ 8c\	[<16gg\LL	.	(16dd\LL	la,	.
.	16gggJJ 16gg\]	.	16ff\JJ)	.	.
*ped	*	*	*	*	*
8G\L	8r	.	8ee\	la,	.
*Xped	*	*	*	*	*
8fJ 8B\	[<16gg\LL	.	8dd\	pio-	.
.	16gggJJ 16gg\]	.	.	.	.
=59	=59	=59	=59	=59	=59
*^	*	*	*	*	*
4r	[2C\	4r	.	4.cc\	-sen-	.
4A/	.	16f/LL	<	.	.	.
.	.	16cc/	.	.	.	.
.	.	16f/	.	8cc\	-ka!	.
.	.	16cc/JJ	.	.	.	.
=60	=60	=60	=60	=60	=60	=60
!	!	!	!	!	!	!LO:DY:a
4G/	2C\_	16e/LL	.	8cc\	La,	<
.	.	16cc/	.	.	.	.
.	.	16e/	.	8cc\	la,	.
.	.	16cc/JJ	.	.	.	.
4F/	.	16d/LL	.	8cc\	la,	.
.	.	16cc/	.	.	.	.
.	.	16d/	.	8cc\	pio-	[[
.	.	16cc/JJ	[[	.	.	.
=61	=61	=61	=61	=61	=61	=61
!	!	!	!	!	!	!LO:DY:a
4E/	2C\_	16c/LL	>	(4.cc\	-sen-	>
.	.	16cc/	.	.	.	.
.	.	16c/	.	.	.	.
.	.	16cc/JJ	.	.	.	.
4A-X/	.	16f/LL	.	.	.	.
.	.	16cc/	.	.	.	.
.	.	16f/	.	16ee\LL	.	.
.	.	16cc/JJ	.	16dd\JJ)	.	.
=62	=62	=62	=62	=62	=62	=62
4.G/	4.C\]	4.cc 4.e/	.	4.cc\	-ka!	.
8r	8ryy	8r	]	8cc\	O	]
*v	*v	*	*	*	*	*
!!LO:PB:g=original
=63	=63	=63	=63	=63	=63
8EE/	8r	p	4b\	wiem	.
8r	8b 8g 8e/	.	.	.	.
8GG/	8r	.	8ee\	ja,	.
8r	8g 8e 8B/	.	8ee\	wiem	.
=64	=64	=64	=64	=64	=64
8AA/	8r	.	(8dd\L	ko-	.
8r	8cc 8f#X 8e/	.	8cc\J)	.	.
8C/	8r	.	8b\	-goś,	.
8r	8a 8f# 8e/	.	8a/	co	.
=65	=65	=65	=65	=65	=65
8BB/	8r	.	(8g/L	wszy-	.
8r	8b 8f#X 8d#X/	.	8f#X/J)	.	.
8D#X\	8r	.	8b\	-stko	.
8r	8f# 8B/	.	8a/	mi	.
=66	=66	=66	=66	=66	=66
8E\	8r	.	4g/	po-	.
8r	8g 8e 8B/	.	.	.	.
8EE/	8r	.	8e/	-wie,	.
8r	8b 8g 8e/	.	8b\	Zwier-	.
=67	=67	=67	=67	=67	=67
8AA/	8r	.	4b\	-cia-	.
8r	8b 8f#X 8e 8c/	.	.	.	.
8AA/	8r	.	8a/	-dło	.
8r	8a 8f# 8e 8c/	.	8a/	mi	.
=68	=68	=68	=68	=68	=68
8BB/	8r	.	4a/	praw-	.
8r	8a 8e 8B/	.	.	.	.
8BB/	8r	.	8g/	-dę,	.
8r	8g 8e 8B/	.	8g/	zwier-	.
!!LO:LB:g=original
=69	=69	=69	=69	=69	=69
8C/	8r	.	(8g/L	-cia-	.
8r	8f#X 8e 8A/	.	8f#X/J)	.	.
8C/	8r	.	8g/	-dło	.
8r	8f# 8e 8A#X/	.	8f#/	od-	.
=70	=70	=70	=70	=70	=70
8BB/	8r	.	4f#X/	-sło-	.
8r	8f#X 8d#X 8B/	.	.	.	.
8AA/	8r	.	8b\	-ni;	.
8r	8f# 8d# 8B/	.	8b\	Li-	.
=71	=71	=71	=71	=71	=71
8GG/	8r	.	4b\	-li-	.
8r	8b 8e/	.	.	.	.
8GG#X/	8r	.	8ee\	-ę	.
8r	8ee 8b [8e/	.	8ee\	u-	.
=72	=72	=72	=72	=72	=72
*	*^	*	*	*	*
8AA'/L	8eeL 8cc'/	2e\]	.	(8ee\L	-plo-	.
8BB'/	8dd 8b'/	.	.	8dd\J)	.	.
8C'/	8cc 8a'/	.	.	8cc\	-tę	.
8C#X'/J	8bJ 8g'/	.	.	8b\	u	.
=73	=73	=73	=73	=73	=73	=73
*	*	*^	*	*	*	*
8D'\L	8b'/L	4f#X/	[2d\	.	(8b/L	wstą-	.
8E'\	8a'/J	.	.	.	8a/J)	.	.
8F#X'\	8ddL 8b'/	4ryy	.	.	8dd\	-żek	.
8D'\J	8ccJ 8a'/	.	.	.	8cc\	na	.
*	*	*v	*v	*	*	*	*
=74	=74	=74	=74	=74	=74	=74
8G'\L	4cc 4a/	4.d\]	.	4cc\	gło-	.
8A'\	.	.	.	.	.	.
8B'\	8b 8g/	.	.	8b\	-wie,	.
8G'\J	8r	8ryy	.	8b\	Ró-	.
*	*v	*v	*	*	*	*
!!LO:LB:g=original
=75	=75	=75	=75	=75	=75
!	!LO:TX:b:t=rallent. sempre	!	!LO:TX:a:t=rallent. sempre	!	!
8C'\L	8.r	.	4b^\	-ży-	.
8eJ 8A'\	.	.	.	.	.
.	48gg#X\LLL	.	.	.	.
.	48aa\	.	.	.	.
.	48bb\JJJ	.	.	.	.
8C'\L	4aa\	.	8a/	-czkę	.
8e-XJ 8G'\	.	.	8a/	we	.
=76	=76	=76	=76	=76	=76
8D'\L	8.r	.	4b^\	wło-	.
8dJ 8G'\	.	.	.	.	.
.	48gg#X\LLL	.	.	.	.
.	48aa\	.	.	.	.
.	48bb\JJJ	.	.	.	.
8E-X'\L	4aa\	.	8a/	-sach,	.
8c#XJ 8G'\	.	.	8a/	we	.
=77	=77	=77	=77	=77	=77
8D'\L	8.r	.	(8a\L	wło-	.
8cnJ 8G'\	.	.	16b\L	.	.
.	48cc#X\LLL	.	16cc\JJ)	.	.
.	48dd\	.	.	.	.
.	48ee\JJJ	.	.	.	.
8D'\L	4dd\	.	8b\	-sach	.
8cJ 8F#X'\	.	.	8a/	u	.
=78	=78	=78	=78	=78	=78
8GG'\L	8.r	.	4g/	skro-	.
8fnJ 8c'\	.	.	.	.	.
.	48ff#X\LLL	.	.	.	.
.	48gg\	.	.	.	.
.	48aa\JJJ	.	.	.	.
([<8G\L	4gg;\	.	8ffn;\	-ni.	.
8fJ 8B 8G;\])	.	.	8ff\	O!	.
=79	=79	=79	=79	=79	=79
*ped	*	*	*	*	*
!	!LO:TX:b:t=a tempo	!	!LO:TX:a:B:t=a tempo	!	!
8C'\L	4r	.	4ee\	mil-	.
8eJ 8G'\	.	.	.	.	.
.	(<8qee/	.	.	.	.
8C'\L	8gg 8ee\)	.	8cc\	-sze	.
*Xped	*	*	*	*	*
8eJ 8G'\	8r	.	8b\	kro-	.
!!LO:LB:g=original
=80	=80	=80	=80	=80	=80
*ped	*	*	*	*	*
!	!LO:TX:b:i:t=leggiero	!	!	!	!
8C'\L	4r	.	(8a/L	-sien-	.
8fJ 8A'\	.	.	8b/J)	.	.
.	(<8qff/	.	.	.	.
8C'\L	8ccc 8ff\)	.	8cc\	-ka,	.
*Xped	*	*	*	*	*
8fJ 8A'\	8r	.	(16ee\LL	I	.
.	.	.	16dd\JJ)	.	.
=81	=81	=81	=81	=81	=81
*ped	*	*	*	*	*
8C'\L	4r	.	(8cc\L	mi-	.
8fJ 8G'\	.	.	8b\J)	.	.
.	(<8qff/	.	.	.	.
8C'\L	8ddd 8ff\)	.	8a/	-léj	.
*Xped	*	*	*	*	*
8fJ 8G'\	8r	.	8g/	z o-	.
=82	=82	=82	=82	=82	=82
*ped	*	*	*	*	*
8C'\L	4r	.	4cc\	-kien-	.
8eJ 8G'\	.	.	.	.	.
.	(<8qee/	.	.	.	.
8C'\L	8ggg 8ee\)	.	8gg\	-ka	.
*Xped	*	*	*	*	*
8eJ 8G'\	8r	.	8gg\	Za-	.
=83	=83	=83	=83	=83	=83
*ped	*	*	*	*	*
8E'\L	16r	.	4gg\	-dzwo-	.
.	16cc\LL	.	.	.	.
8gJ 8c'\	16ccc\	.	.	.	.
.	[<16cc\JJ	.	.	.	.
8E'\L	8ccc 8cc\]	.	8ee\	-ni	.
*Xped	*	*	*	*	*
8b-XJ 8c'\	8r	.	8dd\	pio-	.
=84	=84	=84	=84	=84	=84
*ped	*	*	*	*	*
8F'\L	8r	.	4cc\	-sen-	.
8aJ 8c'\	[<16cc\LL	.	.	.	.
.	16cccJJ 16cc\]	.	.	.	.
8A'\L	8r	.	4ff\	-ka,	.
*Xped	*	*	*	*	*
8fJ 8c'\	[<16cc\LL	.	.	.	.
.	16cccJJ 16cc\]	.	.	.	.
!!LO:PB:g=original
=85	=85	=85	=85	=85	=85
8G\L	8r	.	8ee\	La,	.
8eJ 8c\	[16gg\LL	.	(16dd\LL	la,	.
.	16gggJJ 16gg\]	.	16ff\JJ)	.	.
8G\L	8r	.	8ee\	la,	.
8fJ 8B\	[16gg\LL	.	8dd\	pio-	.
.	16gggJJ 16gg\]	.	.	.	.
=86	=86	=86	=86	=86	=86
*^	*	*	*	*	*
4r	[2C\	4r	.	4.cc\	-sen-	.
4A/	.	16f/LL	<	.	.	.
.	.	16cc/	.	.	.	.
!	!	!	!	!	!	!LO:DY:a
.	.	16f/	.	8cc\	-ka!	<
.	.	16cc/JJ	.	.	.	.
=87	=87	=87	=87	=87	=87	=87
4G/	2C\_	16e/LL	.	8cc\	La,	.
.	.	16cc/	.	.	.	.
.	.	16e/	.	8cc\	la,	.
.	.	16cc/JJ	.	.	.	.
4F/	.	16d/LL	.	8cc\	la,	.
.	.	16cc/	.	.	.	.
.	.	16d/	.	8cc\	pio-	[[
.	.	16cc/JJ	[[	.	.	.
=88	=88	=88	=88	=88	=88	=88
!	!	!	!	!	!	!LO:DY:a
4E/	2C\_	16c/LL	>	(4.cc\	-sen-	>
.	.	16cc/	.	.	.	.
.	.	16c/	.	.	.	.
.	.	16cc/JJ	.	.	.	.
4A-X/	.	16f/LL	.	.	.	.
.	.	16cc/	.	.	.	.
.	.	16f/	.	16ee\LL	.	.
.	.	16cc/JJ	.	16dd\JJ)	.	.
=89	=89	=89	=89	=89	=89	=89
4.G/	4.C\]	4.cc 4.e/	.	4.cc\	-ka!	.
8r	8ryy	8r	]	8cc\	Wie-	]
*v	*v	*	*	*	*	*
!!LO:LB:g=original
=90	=90	=90	=90	=90	=90
!	!LO:TX:b:t=un poco più moto	!	!LO:TX:a:t=un poco più moto	!	!LO:DY:a
8EE/	8r	p	4b\	-czo-	p
8r	8b 8g 8e/	.	.	.	.
8GG/	8r	.	8ee\	-rem	.
8r	8g 8e 8B/	.	8ee\	za	.
=91	=91	=91	=91	=91	=91
8AA/	8r	.	(8dd\L	dwo-	.
8r	8cc 8f#X 8e/	.	8cc\J)	.	.
8C/	8r	.	8b\	-rem	.
8r	8a 8f# 8e/	.	8a/	go-	.
=92	=92	=92	=92	=92	=92
8BB/	8r	.	(8g/L	-ści-	.
8r	8b 8f#X 8d#X/	.	8f#X/J)	.	.
8D#X\	8r	.	8b\	-niec	.
8r	8f# 8B/	.	8a/	w ku-	.
=93	=93	=93	=93	=93	=93
8E\	8r	.	4g/	-rza-	.
8r	8g 8e 8B/	.	.	.	.
8EE/	8r	.	8e/	-wie,	.
8r	8b 8g 8e/	.	8b\	Gość	.
=94	=94	=94	=94	=94	=94
!	!LO:TX:b:t=accelerando poco	!	!	!	!
8AA/	8r	.	4b\	je-	.
8r	8b 8f#X 8e 8c/	.	.	.	.
8AA/	8r	.	8a/	-dzie,	.
8r	8a 8f# 8e 8c/	.	8a/	gość	.
!!LO:LB:g=original
=95	=95	=95	=95	=95	=95
!	!LO:TX:b:t=a poco	!	!	!	!
8BB/	8r	.	4a/	je-	.
8r	8a 8e 8B/	.	.	.	.
8BB/	8r	.	8g/	-dzie	.
8r	8g 8e 8B/	.	8g/	na	.
=96	=96	=96	=96	=96	=96
8C/	8r	.	(8g/L	wro-	.
8r	8f#X 8e 8A/	.	8f#X/J)	.	.
8C/	8r	.	8g/	-nym	.
8r	8f# 8e 8A#X/	.	8f#/	ko-	.
=97	=97	=97	=97	=97	=97
8BB/	8r	.	4f#X/	-ni-	.
8r	8f#X 8d#X 8B/	.	.	.	.
8AA/	8r	.	8b\	-ku!	.
8r	8f# 8d# 8B/	.	8b\	O!	.
=98	=98	=98	=98	=98	=98
8GG/	8r	.	4b\	prę-	.
8r	8b 8e/	.	.	.	.
8GG#X/	8r	.	8ee\	-dzéj	.
8r	8ee 8b [8e/	.	8ee\	co	.
=99	=99	=99	=99	=99	=99
*	*^	*	*	*	*
8AA'/L	8eeL 8cc'/	2e\]	.	(8ee\L	prę-	.
8BB'/	8dd 8b'/	.	.	8dd\J)	.	.
8C'/	8cc 8a'/	.	.	8cc\	-dzéj	.
8C#X'/J	8bJ 8g'/	.	.	8b\	u	.
=100	=100	=100	=100	=100	=100	=100
*	*	*^	*	*	*	*
8D'\L	8b'/L	4f#X/	[<2d\	.	(8b/L	wło-	.
8E'\	8a'/J	.	.	.	8a/J)	.	.
8F#X'\	8ddL 8b'/	4ryy	.	.	8dd\	-sów	.
8D'\J	8ccJ 8a'/	.	.	.	8cc\	po-	.
*	*	*v	*v	*	*	*	*
!!LO:LB:g=original
=101	=101	=101	=101	=101	=101	=101
8G'\L	4cc 4a/	4.d\]	.	4cc\	-pra-	.
8A'\	.	.	.	.	.	.
8B'\	8b 8g/	.	.	8b\	-wię,	.
8G'\J	8r	8ryy	.	8b\	Prze-	.
*	*v	*v	*	*	*	*
=102	=102	=102	=102	=102	=102
!	!LO:TX:b:t=rallentando sempre	!	!	!	!LO:DY:a
8C'\L	8.r	.	4b\	-pa-	>
8eJ 8A'\	.	.	.	.	.
.	48gg#X\LLL	.	.	.	.
.	48aa\	.	.	.	.
.	48bb\JJJ	.	.	.	.
8C'\L	4aa\	.	8a/	-skę	]
8e-XJ 8G'\	.	.	8a/	za-	.
=103	=103	=103	=103	=103	=103
!	!	!	!	!	!LO:DY:a
8D'\L	8.r	.	4b\	-ci-	>
8dJ 8G'\	.	.	.	.	.
.	48gg#X\LLL	.	.	.	.
.	48aa\	.	.	.	.
.	48bb\JJJ	.	.	.	.
8E-X'\L	4aa\	.	8a/	-snę,	]
8c#XJ 8G'\	.	.	8a/	za-	.
=104	=104	=104	=104	=104	=104
8D'\L	8.r	.	(8a\L	-ci-	.
8cnJ 8G'\	.	.	16b\L	.	.
.	48cc#X\LLL	.	16cc\JJ)	.	.
.	48dd\	.	.	.	.
.	48ee\JJJ	.	.	.	.
8D'\L	4dd\	.	8b\	-snę	.
8cJ 8F#X'\	.	.	8a/	w sta-	.
=105	=105	=105	=105	=105	=105
!	!	!	!	!	!LO:DY:a
8GG'\L	8.r	.	4g/	-ni-	<
8fnJ 8c'\	.	.	.	.	.
.	48ff#X\LLL	.	.	.	.
.	48gg\	.	.	.	.
.	48aa\JJJ	.	.	.	.
!	!	!	!	!	!LO:DY:a
([<8G\L	4gg;\	.	8ffn;\	-ku.	[ >
8fJ 8B 8G;\])	.	.	8ff\	O!	]
!!LO:PB:g=original
=106	=106	=106	=106	=106	=106
*ped	*	*	*	*	*
!	!LO:TX:b:i:t=leggiero	!	!	!	!
!	!LO:TX:a:B:t=a tempo	!	!LO:TX:a:B:t=a tempo	!	!
8C'\L	4r	.	4ee\	mil-	.
8eJ 8G'\	.	.	.	.	.
.	(<8qee/	.	.	.	.
8C'\L	8gg 8ee\)	.	8cc\	-sze	.
*Xped	*	*	*	*	*
8eJ 8G'\	8r	.	8b\	kro-	.
=107	=107	=107	=107	=107	=107
*ped	*	*	*	*	*
8C'\L	4r	.	(8a/L	-sien-	.
8fJ 8A'\	.	.	8b/J)	.	.
.	(<8qff/	.	.	.	.
8C'\L	8ccc 8ff\)	.	8cc\	-ka,	.
*Xped	*	*	*	*	*
8fJ 8A'\	8r	.	(16ee\LL	I	.
.	.	.	16dd\JJ)	.	.
=108	=108	=108	=108	=108	=108
*ped	*	*	*	*	*
8C'\L	4r	.	(8cc\L	mi-	.
8fJ 8G'\	.	.	8b\J)	.	.
.	(<8qff/	.	.	.	.
8C'\L	8ddd 8ff\)	.	8a/	-léj	.
*Xped	*	*	*	*	*
8fJ 8G'\	8r	.	8g/	z o-	.
=109	=109	=109	=109	=109	=109
*ped	*	*	*	*	*
8C'\L	4r	.	4cc\	-kien-	.
8eJ 8G'\	.	.	.	.	.
.	(<8qee/	.	.	.	.
8C'\L	8ggg 8ee\)	.	8gg\	-ka	.
*Xped	*	*	*	*	*
8eJ 8G'\	8r	.	8gg\	Za-	.
=110	=110	=110	=110	=110	=110
*ped	*	*	*	*	*
8E\L	16r	.	4gg\	-dzwo-	.
.	16cc\LL	.	.	.	.
8gJ 8c\	16ccc\	.	.	.	.
.	[<16cc\JJ	.	.	.	.
8E\L	8ccc 8cc\]	.	8ee\	-ni	.
*Xped	*	*	*	*	*
8b-XJ 8c\	8r	.	8dd\	pio-	.
=111	=111	=111	=111	=111	=111
*ped	*	*	*	*	*
8F\L	8r	.	4cc\	-sen-	.
8aJ 8c\	[<16cc\LL	.	.	.	.
.	16cccJJ 16cc\]	.	.	.	.
8A\L	8r	.	4ff\	-ka,	.
8fJ 8c\	[<16cc\LL	.	.	.	.
.	16cccJJ 16cc\]	.	.	.	.
*Xped	*	*	*	*	*
=112	=112	=112	=112	=112	=112
*ped	*	*	*	*	*
8G\L	8r	.	8ee\	La,	.
*Xped	*	*	*	*	*
8eJ 8c\	[<16gg\LL	.	(16dd\LL	la,	.
.	16gggJJ 16gg\]	.	16ff\JJ)	.	.
*ped	*	*	*	*	*
8G\L	8r	.	8ee\	la,	.
*Xped	*	*	*	*	*
8fJ 8B\	[<16gg\LL	.	8dd\	pio-	.
.	16gggJJ 16gg\]	.	.	.	.
!!LO:LB:g=original
=113	=113	=113	=113	=113	=113
*^	*	*	*	*	*
4r	[2C\	4r	.	4.cc\	-sen-	.
4A/	.	16f/LL	<	.	.	.
.	.	16cc/	.	.	.	.
!	!	!	!	!	!	!LO:DY:a
.	.	16f/	.	8cc\	-ka!	<
.	.	16cc/JJ	.	.	.	.
=114	=114	=114	=114	=114	=114	=114
4G/	2C\_	16e/LL	.	8cc\	La,	.
.	.	16cc/	.	.	.	.
.	.	16e/	.	8cc\	la,	.
.	.	16cc/JJ	.	.	.	.
4F/	.	16d/LL	.	8cc\	la,	.
.	.	16cc/	.	.	.	.
.	.	16d/	.	8cc\	pio-	[[
.	.	16cc/JJ	[[	.	.	.
=115	=115	=115	=115	=115	=115	=115
!	!	!	!	!	!	!LO:DY:a
4E/	2C\_	16c/LL	>	(4.cc\	-sen-	>
.	.	16cc/	.	.	.	.
.	.	16c/	.	.	.	.
.	.	16cc/JJ	.	.	.	.
4A-X/	.	16f/LL	.	.	.	.
.	.	16cc/	.	.	.	.
.	.	16f/	.	16ee\LL	.	.
.	.	16cc/JJ	.	16dd\JJ)	.	.
=116	=116	=116	=116	=116	=116	=116
4.G/	4.C\]	4.cc 4.e/	.	4.cc\	-ka!	.
8r	8ryy	8r	]	8cc\	On	]
*v	*v	*	*	*	*	*
=117	=117	=117	=117	=117	=117
8FF/	8r	p	4dd\	i-	.
8r	8a 8f 8c/	.	.	.	.
8F\	8r	.	8cc\	-dzie	.
8r	8f 8c 8A/	.	8cc\	i	.
=118	=118	=118	=118	=118	=118
8FF/	8r	.	(8dd\L	kła-	.
8r	8a 8f 8c/	.	8cc\J)	.	.
8F\	8r	.	8e/	-nia	.
8r	8f 8c 8A/	.	8f/	i	.
=119	=119	=119	=119	=119	=119
8FF/	8r	.	(8g/L	zbli-	.
8r	8b-X 8g 8e/	.	8a/J)	.	.
8F\	8r	.	8b-X\	-ża	.
8r	8g 8e 8B-X/	.	8bn\	się	.
!!LO:LB:g=original
=120	=120	=120	=120	=120	=120
8FF/	8r	.	(8cc\L	do	.
8r	8a 8f 8c/	.	16ee\L	.	.
.	.	.	16dd\JJ)	.	.
8F\	8r	.	8cc\	mnie,	.
8r	8f 8c 8A/	.	8cc\	I	.
=121	=121	=121	=121	=121	=121
8AA/	8r	.	4cc\	mó-	.
8r	8cc 8f 8c/	.	.	.	.
8AA-X/	8r	.	8dd\	-wi	.
8r	8cc 8f 8c/	.	8cc\	tak	.
=122	=122	=122	=122	=122	=122
8GG/	8r	.	4bn\	pię-	.
8r	8bn 8f 8d/	.	.	.	.
8G\	8r	.	8gg\	-knie	.
8r	8b-X 8f 8d/	.	8b-X\	i	.
=123	=123	=123	=123	=123	=123
8C/	8r	.	(4b-X\	z ci-	.
8r	8b-X 8e 8d/	.	.	.	.
8CC/	8r	.	8cc\L	.	.
8r	8b- 8e 8c/	.	8b-\J)	.	.
=124	=124	=124	=124	=124	=124
8FF/	8r	.	4.a/	-cha;	.
8r	8a 8f 8c/	.	.	.	.
8F\	8r	.	.	.	.
8r	8a 8f 8c/	.	8cc\	Wstyd	.
=125	=125	=125	=125	=125	=125
!	!	!	!LO:TX:a:i:t=grazioso	!	!LO:DY:a
8r	8r	.	4cc\	o-	>
8FF#X/L	(8ccL 8a 8e-X/	>	.	.	.
8GG/J	8b-XJ 8g 8d/)	.	8b-X\	-czu	]
8r	8r	]	8a/	mi	.
=126	=126	=126	=126	=126	=126
!	!	!	!	!	!LO:DY:a
8r	8r	.	4a/	po-	>
8AA/L	(8aL 8f#X 8c/	>	.	.	.
8BB-X/J	8gJ 8d 8B-X/)	.	8g/	-dnieść,	]
8r	8r	]	8g/	tak	.
!!LO:LB:g=original
=127	=127	=127	=127	=127	=127
8C/	8r	.	(8g/L	chwa-	.
8r	8g 8e 8B-X/	.	16a/L	.	.
.	.	.	16b-X/JJ)	.	.
8CC/	8r	.	8a/	li	.
8r	8g 8e 8B-/	.	8g/	nie-	.
=128	=128	=128	=128	=128	=128
8FF/	8r	.	8f/	-skro-	.
8r	4a 4f 4c/	.	8cc\	-mnie:	.
8F'\	.	.	8r	.	.
!	!	!	!	!	!LO:DY:a
8c'^\	8r	.	8cc\	Po-	f
=129	=129	=129	=129	=129	=129
4.C/	8r	f	4cc\	-chle-	.
.	8gL 8e/	>	.	.	.
.	8a-XJ 8f/	.	8cc\	-bnik!	.
!	!	!	!	!	!LO:DY:a
8c'^\	8r	]	8cc\	on	p
=130	=130	=130	=130	=130	=130
!	!	!	!LO:TX:a:t=con duolo	!	!
4.C/	8r	p	4cc\	bie-	.
.	8fL 8d/	>	.	.	.
.	8gJ 8e/	.	8cc\	-dny!	.
8c'\	8r	]	8cc\	on	.
=131	=131	=131	=131	=131	=131
!	!	!	!LO:TX:a:t=ritard.	!	!LO:DY:a
[2C/	8r	.	(4.cc\	wzdy-	<
!	!LO:TX:b:t=ritard.	!	!	!	!
.	8eL 8c/	<	.	.	.
.	8f 8d/	.	.	.	.
.	8a-XJ 8f/	[[	16ee-X\LL	.	.
.	.	.	16dd-X\JJ)	.	[[
=132	=132	=132	=132	=132	=132
*	*^	*	*	*	*
!	!	!	!	!	!	!LO:DY:a
4.C/]	4.g/	8gL 8e\	>	4.cc\	-cha.	>
.	.	8f 8d\	.	.	.	.
.	.	8eJ 8c\	.	.	.	.
8r	8r	8ryy	]	8cc\	O!	]
*	*v	*v	*	*	*	*
!!LO:LB:g=original
=133||	=133||	=133||	=133||	=133||	=133||
*k[b-e-a-d-]	*k[b-e-a-d-]	*	*k[b-e-a-d-]	*	*
*M6/8	*M6/8	*	*M6/8	*	*
*^	*	*	*	*	*
*ped	*	*	*	*	*	*
!	!	!	!	!LO:TX:a:B:t=Andante non troppo.	!	!
!	!	!	!	!LO:TX:a:t=con grazia	!	!
16A-/LL	[2.AA-\	16c/LL	p	8ee-\	do-	.
16E-/	.	16e-/	.	.	.	.
16A-/	.	16c/	.	8cc\	-bry	.
16E-/	.	16e-/	.	.	.	.
16A-/	.	16c/	.	8b-\	i	.
16E-/JJ	.	16e-/JJ	.	.	.	.
16A-/LL	.	16c/LL	.	8a-/	grze-	.
16E-/	.	16e-/	.	.	.	.
16A-/	.	16c/	.	8a-/	-czny	.
16E-/	.	16e-/	.	.	.	.
16A-/	.	16c/	.	8a-/	i	.
*Xped	*	*	*	*	*	*
16E-/JJ	.	16e-/JJ	.	.	.	.
=134	=134	=134	=134	=134	=134	=134
*ped	*	*	*	*	*	*
!	!	!	!	!	!	!LO:DY:a
16B-/LL	2.AA-\]	16d-/LL	.	(16g/LL	mi-	<
16E-/	.	16e-/	.	16a-/	.	.
16B-/	.	16d-/	.	16b-/	.	.
16E-/	.	16e-/	.	16cc/JJ)	.	.
16B-/	.	16d-/	.	16dd-\	-ły	.
*Xped	*	*	*	*	*	*
16E-/JJ	.	16e-/JJ	.	16dd-\	chłop-	.
*ped	*	*	*	*	*	*
16A-/LL	.	16c/LL	.	8cc\	-czy-	.
16E-/	.	16e-/	.	.	.	.
16A-/	.	16c/	.	8ee-\	-na,	[
16E-/	.	16e-/	.	.	.	.
16A-/	.	16c/	.	8ee-\	Lecz	.
*Xped	*	*	*	*	*	*
16E-/JJ	.	16e-/JJ	.	.	.	.
=135	=135	=135	=135	=135	=135	=135
*	*	*^	*	*	*	*
*ped	*	*	*	*	*	*	*
16A-/LL	2.AA-\	16c/LL	8ryy	.	8ee-\	bę-	.
16E-/	.	16e-/JJ	.	.	.	.	.
16A-/	.	8a-/L	16c\LL	.	8a-/	-dę,	.
16E-/	.	.	16e-\	.	.	.	.
16A-/	.	8g/J	16c\	.	8g/	o!	.
*Xped	*	*	*	*	*	*	*
16E-/JJ	.	.	16e-\JJ	.	.	.	.
!	!	!	!	!	!LO:TX:a:t=rallent.	!	!
16A-/LL	.	8f#X/L	16c\LL	.	8f#X/	bę-	.
16E-/	.	.	16e-\	.	.	.	.
16A-/	.	8cc/	16c\	.	8cc\	-dę,	.
16E-/	.	.	16e-\	.	.	.	.
16A-/	.	8f#/J	16c\	.	8f#/	o-	.
16Dn/JJ	.	.	16dn\JJ	.	.	.	.
=136	=136	=136	=136	=136	=136	=136	=136
*ped	*	*	*	*	*	*	*
16F#X/LL	[4.GG\	4.an/	16c\LL	.	4.an/	-stro-	.
16Dn/	.	.	16dn\	.	.	.	.
16F#/	.	.	16c\	.	.	.	.
16D/	.	.	16d\	.	.	.	.
16F#/	.	.	16c\	.	.	.	.
*Xped	*	*	*	*	*	*	*
16D/JJ	.	.	16d\JJ	.	.	.	.
4G/	4GG\]	4g/	4Bn\	.	4g;/	-żna!	.
8r	8ryy	8r	8ryy	.	8g/	Ca-	.
*v	*v	*	*	*	*	*	*
*	*v	*v	*	*	*	*
!!LO:LB:g=original
=137||	=137||	=137||	=137||	=137||	=137||
*k[]	*k[]	*	*k[]	*	*
*M2/4	*M2/4	*	*M2/4	*	*
!	!	!	!LO:TX:a:B:t=Tempo I.	!	!
8BB'\L	8r	p	(8a/L	-ło-	.
8G'\J	8g 8f 8d/	.	8g/J)	.	.
8GG'\L	8r	.	8a/	-wać	.
8G'\J	8g 8f 8d/	.	8g/	chcę	.
=138	=138	=138	=138	=138	=138
8C'\L	8r	.	4cc\	ró-	.
8G'\J	8g 8e 8c/	.	.	.	.
8GG'\L	8r	.	8ee\	-żę	.
8G'\J	8g 8e 8c/	.	8g/	da-	.
=139	=139	=139	=139	=139	=139
8BB'\L	8r	.	(8a/L	-li-	.
8G'\J	8g 8f 8d/	.	8g/J)	.	.
.	.	.	(8qb/	.	.
8GG'\L	8r	.	8a/)	-bóg	.
8G'\J	8g 8f 8d/	.	8g/	za-	.
=140	=140	=140	=140	=140	=140
8C'\L	8r	.	4cc\	-czy-	.
8G'\J	8g 8e 8c/	.	.	.	.
8GG'\L	8r	.	8ee\	-na;	.
8G'\J	8g 8e 8c/	.	8ee\	O	.
=141	=141	=141	=141	=141	=141
8C'\L	8.r	.	4ee\	pro-	.
8eJ 8G'\	.	.	.	.	.
.	48bb\LLL	.	.	.	.
.	48ccc\	.	.	.	.
.	48ddd\JJJ	.	.	.	.
8C'\L	4ccc\	.	8cc\	-szę!	.
8e-XJ 8G'\	.	.	8b\	nie-	.
=142	=142	=142	=142	=142	=142
8D'\L	8.r	.	4b\	-mo-	.
8dJ 8G'\	.	.	.	.	.
.	48gg#X\LLL	.	.	.	.
.	48aa\	.	.	.	.
.	48bb\JJJ	.	.	.	.
8E-X'\L	4aa\	.	8a/	-żna!	.
8c#XJ 8G'\	.	.	8a/	nie-	.
!!LO:LB:g=original
=143	=143	=143	=143	=143	=143
8D'\L	8.r	.	(8a\L	-mo-	.
8cnJ 8G'\	.	.	16b\L	.	.
.	48cc#X\LLL	.	16cc\JJ)	.	.
.	48dd\	.	.	.	.
.	48ee\JJJ	.	.	.	.
8D'\L	4dd\	.	8b\	-żna!	.
8cJ 8F#X'\	.	.	8a/	nie-	.
=144	=144	=144	=144	=144	=144
8GG'\L	8.r	.	4g/	-mo-	.
8fnJ 8c'\	.	.	.	.	.
.	48ff#X\LLL	.	.	.	.
.	48gg\	.	.	.	.
.	48aa\JJJ	.	.	.	.
([<8G\L	4gg;\	.	8ffn;\	-żna!	.
8fJ 8B 8G;\])	.	.	8ff\	O!	.
=145	=145	=145	=145	=145	=145
*ped	*	*	*	*	*
8C'\L	4r	.	4ee\	mil-	.
8eJ 8G'\	.	.	.	.	.
.	(<8qee/	.	.	.	.
8C'\L	8gg 8ee\)	.	8cc\	-sze	.
*Xped	*	*	*	*	*
8eJ 8G'\	8r	.	8b\	kro-	.
=146	=146	=146	=146	=146	=146
*ped	*	*	*	*	*
8C'\L	4r	.	(8a/L	-sien-	.
8fJ 8A'\	.	.	8b/J)	.	.
.	(<8qff/	.	.	.	.
8C'\L	8ccc 8ff\)	.	8cc\	-ka,	.
*Xped	*	*	*	*	*
8fJ 8A'\	8r	.	(16ee\LL	I	.
.	.	.	16dd\JJ)	.	.
=147	=147	=147	=147	=147	=147
*ped	*	*	*	*	*
8C'\L	4r	.	(8cc\L	mi-	.
8fJ 8G'\	.	.	8b\J)	.	.
.	(<8qff/	.	.	.	.
8C'\L	8ddd 8ff\)	.	8a/	-léj	.
*Xped	*	*	*	*	*
8fJ 8G'\	8r	.	8g/	z o-	.
=148	=148	=148	=148	=148	=148
*ped	*	*	*	*	*
8C'\L	4r	.	4cc\	-kien-	.
8eJ 8G'\	.	.	.	.	.
.	(<8qee/	.	.	.	.
8C'\L	8ggg 8ee\)	.	8gg\	-ka	.
*Xped	*	*	*	*	*
8eJ 8G'\	8r	.	8gg\	Za-	.
=149	=149	=149	=149	=149	=149
*ped	*	*	*	*	*
8E'\L	16r	.	4gg\	-dzwo-	.
.	16cc\LL	.	.	.	.
8gJ 8c'\	16ccc\	.	.	.	.
.	[<16cc\JJ	.	.	.	.
8E'\L	8ccc 8cc\]	.	8ee\	-ni	.
*Xped	*	*	*	*	*
8b-XJ 8c'\	8r	.	8dd\	pio-	.
!!LO:LB:g=original
=150	=150	=150	=150	=150	=150
*ped	*	*	*	*	*
8F'\L	8r	.	4cc\	-sen-	.
8aJ 8c'\	[<16cc\LL	.	.	.	.
.	16cccJJ 16cc\]	.	.	.	.
8A'\L	8r	.	4ff\	-ka,	.
*Xped	*	*	*	*	*
8fJ 8c'\	[<16cc\LL	.	.	.	.
.	16cccJJ 16cc\]	.	.	.	.
=151	=151	=151	=151	=151	=151
*ped	*	*	*	*	*
8G'\L	8r	.	8ee\	La,	.
*Xped	*	*	*	*	*
8eJ 8c'\	[<16gg\LL	.	(16dd\LL	la,	.
.	16gggJJ 16gg\]	.	16ff\JJ)	.	.
*ped	*	*	*	*	*
8G'\L	8r	.	8ee\	la,	.
*Xped	*	*	*	*	*
8fJ 8B'\	[<16gg\LL	.	8dd\	pio-	.
.	16gggJJ 16gg\]	.	.	.	.
=152	=152	=152	=152	=152	=152
*^	*	*	*	*	*
4r	[2C\	4r	.	4.cc\	-sen-	.
4A/	.	16f/LL	<	.	.	.
.	.	16cc/	.	.	.	.
.	.	16f/	.	8cc\	-ka!	.
.	.	16cc/JJ	.	.	.	.
=153	=153	=153	=153	=153	=153	=153
!	!	!	!	!	!	!LO:DY:a
4G/	2C\_	16e/LL	.	8cc\	La,	<
.	.	16cc/	.	.	.	.
.	.	16e/	.	8cc\	la,	.
.	.	16cc/JJ	.	.	.	.
4F/	.	16d/LL	.	8cc\	la,	.
.	.	16cc/	.	.	.	.
.	.	16d/	.	8cc\	pio-	[[
.	.	16cc/JJ	[[	.	.	.
=154	=154	=154	=154	=154	=154	=154
!	!	!	!	!	!	!LO:DY:a
4E/	2C\_	16c/LL	>	(4.cc\	-sen-	>
.	.	16cc/	.	.	.	.
.	.	16c/	.	.	.	.
.	.	16cc/JJ	.	.	.	.
4A-X/	.	16f/LL	.	.	.	.
.	.	16cc/	.	.	.	.
.	.	16f/	.	16ee\LL	.	.
.	.	16cc/JJ	.	16dd\JJ)	.	]]
=155	=155	=155	=155	=155	=155	=155
8G/	2C\_	8cc 8e/	.	[2cc\	-ka!	.
8r	.	8r	]	.	.	.
4r	.	4e 4G/	pp	.	.	.
*v	*v	*	*	*	*	*
=156	=156	=156	=156	=156	=156
*ped	*	*	*	*	*
2C;<\]	2c 2E;/	.	4cc\]	.	.
*Xped	*	*	*	*	*
.	.	.	4r;	.	.
==	==	==	==	==	==
*-	*-	*-	*-	*-	*-
!!!system-decoration: s1[(s2,s3)]
!!!RDF**kern: > = above
!!!RDF**kern: < = below
!!!ENC: Filip Voros
!!!END: 2022-03-05
!!!ENC: Leszek Kubiak
!!!END: 2022-03-07
!!!YEC: Copyright 2022 Narodowy Instytut Fryderyka Chopina (https://polishscores.org)
!!!YEM: License CC-BY-4.0 (https://creativecommons.org/licenses/by/4.0)
